public/assets/img/start1.svg

<svg width="67" height="64" viewBox="0 0 67 64" fill="none" xmlns="http://www.w3.org/2000/svg">
<path d="M63.4014 4.57143H41.5668L41.1594 2.79133C40.7826 1.14796 39.3401 0 37.6512 0H3.59863C1.61427 0 0 1.61122 0 3.59184V49.3061C0 51.2867 1.61427 52.898 3.59863 52.898H30.892C31.1803 54.5684 32.3105 55.9781 33.9365 56.6133L35.5166 57.2306C35.8161 58.1286 36.4617 58.8694 37.2949 59.2959V60.9306C37.2949 62.623 38.6746 64 40.3701 64H50.5771C52.2727 64 53.6523 62.623 53.6523 60.9306V59.2954C54.8163 58.7 55.6152 57.4908 55.6152 56.098V48.9796H61.4385C62.3407 48.9796 63.0742 48.2474 63.0742 47.3469V11.102H65.0371V49.3061C65.0371 50.2066 64.3036 50.9388 63.4014 50.9388H59.2139C58.6715 50.9388 58.2324 51.3775 58.2324 51.9184C58.2324 52.4592 58.6715 52.898 59.2139 52.898H63.4014C65.3857 52.898 67 51.2867 67 49.3061V8.16327C67 6.18265 65.3857 4.57143 63.4014 4.57143ZM39.2455 3.22806L39.5533 4.57143H31.098L30.6906 2.79133C30.6231 2.49643 30.5199 2.21837 30.3885 1.95918H37.6512C38.419 1.95918 39.0748 2.48112 39.2455 3.22806ZM27.1825 1.95918C27.9502 1.95918 28.6061 2.48112 28.7773 3.22806L29.0845 4.57143H19.5609L19.153 2.79133C19.0855 2.49643 18.9823 2.21837 18.8509 1.95918H27.1825ZM3.59863 1.95918H15.6449C16.4126 1.95918 17.0685 2.48112 17.2397 3.22806L17.8214 5.76939C17.9236 6.2148 18.3208 6.53061 18.7783 6.53061H63.4014C64.3036 6.53061 65.0371 7.26327 65.0371 8.16327V9.14286H1.96289V3.59184C1.96289 2.69133 2.69642 1.95918 3.59863 1.95918ZM32.7803 52.052V46.6071C32.7803 45.9082 33.3497 45.3367 34.05 45.3337C34.393 45.3311 34.714 45.4633 34.9563 45.7041C35.1986 45.9449 35.3315 46.2653 35.3315 46.6061L35.332 55.0546L34.6517 54.7888C33.5148 54.3449 32.7803 53.2704 32.7803 52.052ZM55.7461 31.3469V37.2245H50.1268V31.3469H55.7461ZM48.1639 37.2245H41.875V36.3699C41.875 35.4791 41.507 34.6077 40.866 33.9796C40.2347 33.3607 39.4096 33.0306 38.5412 33.0454C36.772 33.0786 35.332 34.5434 35.332 36.3102V37.2245H31.668V31.3469H48.1639V37.2245ZM50.5771 62.0408H40.3701C39.7567 62.0408 39.2578 61.5429 39.2578 60.9306V59.6898H51.6895V60.9306C51.6895 61.5429 51.1906 62.0408 50.5771 62.0408ZM53.6523 56.098C53.6523 56.9985 52.9188 57.7306 52.0166 57.7306H38.9307C38.0285 57.7306 37.2949 56.9985 37.2949 56.098V36.3102C37.2949 35.6036 37.8705 35.0173 38.5785 35.0041H38.601C38.9291 35.0041 39.2445 35.1362 39.4909 35.3775C39.7588 35.6398 39.9121 36.0015 39.9121 36.3699V48.4571C39.9121 48.998 40.3517 49.4367 40.8936 49.4367C41.4359 49.4367 41.875 48.998 41.875 48.4571V46.1061C41.875 45.3857 42.4623 44.8 43.1836 44.8C43.9054 44.8 44.4922 45.3857 44.4922 46.1061V48.4571C44.4922 48.998 44.9318 49.4367 45.4736 49.4367C46.016 49.4367 46.4551 48.998 46.4551 48.4571V46.1061C46.4551 45.3857 47.0424 44.8 47.7637 44.8C48.4854 44.8 49.0723 45.3857 49.0723 46.1061V48.4571C49.0723 48.998 49.5119 49.4367 50.0537 49.4367C50.5961 49.4367 51.0352 48.998 51.0352 48.4571V46.1061C51.0352 45.3995 51.6107 44.8133 52.3187 44.8C52.654 44.7934 52.9791 44.9265 53.2317 45.1735C53.499 45.4357 53.6529 45.7974 53.6529 46.1658V56.098H53.6523ZM61.1113 47.0204H55.6152V46.1658C55.6152 45.275 55.2472 44.4036 54.6062 43.7755C53.9749 43.1566 53.1545 42.826 52.2814 42.8413C51.419 42.8577 50.6344 43.2138 50.0573 43.7796C49.4664 43.1995 48.6562 42.8408 47.7637 42.8408C46.8727 42.8408 46.064 43.198 45.4736 43.7765C44.8832 43.198 44.0746 42.8408 43.1836 42.8408C42.7184 42.8408 42.2758 42.9383 41.875 43.1133V39.1837H56.0732C56.9755 39.1837 57.709 38.4515 57.709 37.551V31.0204C57.709 30.1199 56.9755 29.3878 56.0732 29.3878H31.3408C30.4386 29.3878 29.7051 30.1199 29.7051 31.0204V37.551C29.7051 38.4515 30.4386 39.1837 31.3408 39.1837H35.332V43.6342C34.9343 43.4643 34.5024 43.3745 34.0567 43.3745C34.0516 43.3745 34.0459 43.3745 34.0408 43.3745C32.2635 43.3827 30.8174 44.8332 30.8174 46.6071V47.0204H5.88867V14.6939C5.88867 14.1531 5.44958 13.7143 4.90723 13.7143C4.36488 13.7143 3.92578 14.1531 3.92578 14.6939V47.3469C3.92578 48.2474 4.65931 48.9796 5.56152 48.9796H30.8174V50.9388H3.59863C2.69642 50.9388 1.96289 50.2066 1.96289 49.3061V11.102H61.1113V47.0204Z" fill="#90A1AE"/>
<path d="M31.3408 27.4286H56.0732C56.9755 27.4286 57.709 26.6964 57.709 25.7959V19.2653C57.709 18.3648 56.9755 17.6327 56.0732 17.6327H31.3408C30.4386 17.6327 29.7051 18.3648 29.7051 19.2653V25.7959C29.7051 26.6964 30.4386 27.4286 31.3408 27.4286ZM55.7461 25.4694H50.1268V19.5918H55.7461V25.4694ZM31.668 19.5918H48.1639V25.4694H31.668V19.5918Z" fill="#90A1AE"/>
<path d="M10.207 19.5918H24.8633C25.4056 19.5918 25.8447 19.1531 25.8447 18.6122C25.8447 18.0714 25.4056 17.6327 24.8633 17.6327H10.207C9.66468 17.6327 9.22559 18.0714 9.22559 18.6122C9.22559 19.1531 9.66468 19.5918 10.207 19.5918Z" fill="#90A1AE"/>
<path d="M10.207 23.5102H24.8633C25.4056 23.5102 25.8447 23.0714 25.8447 22.5306C25.8447 21.9898 25.4056 21.551 24.8633 21.551H10.207C9.66468 21.551 9.22559 21.9898 9.22559 22.5306C9.22559 23.0714 9.66468 23.5102 10.207 23.5102Z" fill="#90A1AE"/>
<path d="M10.207 27.4286H20.4141C20.9564 27.4286 21.3955 26.9898 21.3955 26.449C21.3955 25.9082 20.9564 25.4694 20.4141 25.4694H10.207C9.66468 25.4694 9.22559 25.9082 9.22559 26.449C9.22559 26.9898 9.66468 27.4286 10.207 27.4286Z" fill="#90A1AE"/>
<path d="M10.207 31.3469H24.8633C25.4056 31.3469 25.8447 30.9082 25.8447 30.3673C25.8447 29.8265 25.4056 29.3878 24.8633 29.3878H10.207C9.66468 29.3878 9.22559 29.8265 9.22559 30.3673C9.22559 30.9082 9.66468 31.3469 10.207 31.3469Z" fill="#90A1AE"/>
<path d="M10.207 35.2653H20.4141C20.9564 35.2653 21.3955 34.8265 21.3955 34.2857C21.3955 33.7449 20.9564 33.3061 20.4141 33.3061H10.207C9.66468 33.3061 9.22559 33.7449 9.22559 34.2857C9.22559 34.8265 9.66468 35.2653 10.207 35.2653Z" fill="#90A1AE"/>
<path d="M10.207 39.0531H16.4883C17.0306 39.0531 17.4697 38.6143 17.4697 38.0735C17.4697 37.5326 17.0306 37.0939 16.4883 37.0939H10.207C9.66468 37.0939 9.22559 37.5326 9.22559 38.0735C9.22559 38.6143 9.66468 39.0531 10.207 39.0531Z" fill="#90A1AE"/>
<path d="M6.41211 6.53061H13.0859C13.6283 6.53061 14.0674 6.09184 14.0674 5.55102C14.0674 5.0102 13.6283 4.57143 13.0859 4.57143H6.41211C5.86976 4.57143 5.43066 5.0102 5.43066 5.55102C5.43066 6.09184 5.86976 6.53061 6.41211 6.53061Z" fill="#90A1AE"/>
</svg>

<svg width="67" height="64" fill="none" xmlns="http://www.w3.org/2000/svg"><path d="M63.401 4.571H41.567l-.408-1.78A3.58 3.58 0 0 0 37.651 0H3.6A3.6 3.6 0 0 0 0 3.592v45.714a3.6 3.6 0 0 0 3.599 3.592h27.293a4.865 4.865 0 0 0 3.045 3.715l1.58.618a3.61 3.61 0 0 0 1.778 2.065v1.635c0 1.692 1.38 3.069 3.075 3.069h10.207a3.076 3.076 0 0 0 3.075-3.07v-1.635a3.593 3.593 0 0 0 1.963-3.197V48.98h5.823c.903 0 1.636-.733 1.636-1.633V11.102h1.963v38.204c0 .9-.733 1.633-1.636 1.633h-4.187a.98.98 0 1 0 0 1.959H63.4A3.6 3.6 0 0 0 67 49.306V8.163a3.6 3.6 0 0 0-3.599-3.592ZM39.245 3.228l.308 1.343h-8.455l-.407-1.78a3.629 3.629 0 0 0-.302-.832h7.262c.768 0 1.424.522 1.594 1.27ZM27.184 1.96c.767 0 1.423.522 1.594 1.27l.307 1.342h-9.523l-.408-1.78a3.629 3.629 0 0 0-.302-.832h8.332Zm-23.584 0h12.046c.768 0 1.424.522 1.595 1.27l.581 2.54c.103.446.5.762.957.762h44.623c.903 0 1.636.732 1.636 1.632v.98H1.963V3.592c0-.9.733-1.633 1.636-1.633ZM32.78 52.052v-5.445a1.277 1.277 0 0 1 2.176-.903c.243.24.375.561.375.902l.001 8.449-.68-.266a2.921 2.921 0 0 1-1.872-2.737Zm22.966-20.705v5.877h-5.62v-5.877h5.62Zm-7.582 5.877h-6.289v-.854a3.37 3.37 0 0 0-1.009-2.39 3.22 3.22 0 0 0-2.325-.935c-1.769.034-3.209 1.498-3.209 3.265v.914h-3.664v-5.877h16.496v5.877Zm2.413 24.817H40.37a1.112 1.112 0 0 1-1.112-1.11V59.69h12.431v1.24c0 .613-.498 1.11-1.112 1.11Zm3.075-5.943c0 .9-.733 1.633-1.635 1.633H38.93a1.636 1.636 0 0 1-1.636-1.633V36.31c0-.706.575-1.293 1.283-1.306h.023c.328 0 .644.132.89.373.268.263.421.624.421.993v12.087a.98.98 0 0 0 1.963 0v-2.35a1.309 1.309 0 0 1 2.617 0v2.35a.98.98 0 0 0 1.963 0v-2.35a1.309 1.309 0 0 1 2.617 0v2.35a.98.98 0 0 0 1.963 0v-2.35c0-.707.576-1.294 1.284-1.307.335-.007.66.127.913.373.267.263.42.624.42.993v9.932Zm7.46-9.078h-5.497v-.854a3.37 3.37 0 0 0-1.009-2.39 3.21 3.21 0 0 0-2.325-.935 3.263 3.263 0 0 0-2.224.939 3.265 3.265 0 0 0-2.293-.94c-.891 0-1.7.358-2.29.936a3.263 3.263 0 0 0-3.599-.663v-3.93h14.198c.902 0 1.636-.731 1.636-1.632v-6.53c0-.901-.734-1.633-1.636-1.633H31.341c-.902 0-1.636.732-1.636 1.632v6.531c0 .9.734 1.633 1.636 1.633h3.991v4.45a3.24 3.24 0 0 0-1.275-.26h-.016a3.243 3.243 0 0 0-3.224 3.233v.413H5.89V14.694a.98.98 0 0 0-1.963 0v32.653c0 .9.733 1.633 1.636 1.633h25.255v1.959H3.6a1.636 1.636 0 0 1-1.636-1.633V11.102H61.11V47.02Z" fill="#90A1AE"/><path d="M31.34 27.429h24.733c.902 0 1.636-.733 1.636-1.633v-6.53c0-.901-.734-1.633-1.636-1.633H31.341c-.902 0-1.636.732-1.636 1.632v6.53c0 .901.734 1.634 1.636 1.634Zm24.406-1.96h-5.62v-5.877h5.62v5.877Zm-24.078-5.877h16.496v5.877H31.668v-5.877ZM10.207 19.592h14.656a.98.98 0 1 0 0-1.96H10.207a.98.98 0 1 0 0 1.96ZM10.207 23.51h14.656a.98.98 0 1 0 0-1.959H10.207a.98.98 0 1 0 0 1.96ZM10.207 27.429h10.207a.98.98 0 1 0 0-1.96H10.207a.98.98 0 1 0 0 1.96ZM10.207 31.347h14.656a.98.98 0 1 0 0-1.96H10.207a.98.98 0 1 0 0 1.96ZM10.207 35.265h10.207a.98.98 0 1 0 0-1.959H10.207a.98.98 0 1 0 0 1.96ZM10.207 39.053h6.281a.98.98 0 1 0 0-1.96h-6.281a.98.98 0 1 0 0 1.96ZM6.412 6.53h6.674a.98.98 0 1 0 0-1.959H6.412a.98.98 0 1 0 0 1.96Z" fill="#90A1AE"/></svg>
